polymer/images/klass_avto-1200.svg

<svg width="1920" height="1338" viewBox="0 0 1920 1338" fill="none" xmlns="http://www.w3.org/2000/svg"><g opacity=".5"><mask id="a" maskUnits="userSpaceOnUse" x="329" y="861" width="561" height="328"><path transform="rotate(-180 889.373 1188.2)" fill="#C4C4C4" d="M889.373 1188.2h560.331v326.331H889.373z"/></mask><g mask="url(#a)" stroke="#0047FF" stroke-width=".5"><path d="M436.149 877.817L71.368 1187.89M468.379 877.817L103.597 1187.89M452.263 877.817L87.482 1187.89M500.607 877.817L135.826 1187.89M484.493 877.817L119.712 1187.89M532.837 877.817L168.055 1187.89M516.721 877.817L151.94 1187.89M548.951 877.817L184.17 1187.89M565.065 877.817L200.284 1187.89M597.294 877.817L232.512 1187.89M581.179 877.817L216.398 1187.89M629.523 877.817L264.742 1187.89M613.409 877.817L248.628 1187.89M693.981 877.817L329.2 1187.89M661.753 877.817L296.971 1187.89M726.211 877.817L361.429 1187.89M645.638 877.817L280.857 1187.89M710.096 877.817L345.314 1187.89M677.867 877.817L313.086 1187.89M758.439 877.817L393.658 1187.89M742.325 877.817L377.544 1187.89M790.669 877.817L425.887 1187.89M774.554 877.817L409.772 1187.89M806.783 877.817L442.002 1187.89"/></g></g><path stroke="#0047FF" stroke-opacity=".15" d="M1595.96 311.409L1960.74 1.341M1563.73 311.409L1928.51 1.341M1579.85 311.409L1944.63 1.341M1531.5 311.409L1896.29 1.341M1547.62 311.409L1912.4 1.341M1499.27 311.409L1864.06 1.341M1515.39 311.409L1880.17 1.341M1483.16 311.409L1847.94 1.341M1467.05 311.409L1831.83 1.341M1434.82 311.409L1799.6 1.341M1450.93 311.409L1815.71 1.341M1402.59 311.409L1767.37 1.341M1418.7 311.409L1783.48 1.341M1338.13 311.409L1702.91 1.341M1370.36 311.409L1735.14 1.341M1305.9 311.409L1670.68 1.341M1386.47 311.409L1751.25 1.341M1322.02 311.409L1686.8 1.341M1354.24 311.409L1719.03 1.341M1273.67 311.409L1638.45 1.341M1289.79 311.409L1654.57 1.341M1241.44 311.409L1606.22 1.341M1257.56 311.409L1622.34 1.341M1225.33 311.409L1590.11 1.341"/><path d="M1477.59 266.605L1325.7 394.313h129.92l150.93-127.707-128.96-.001z" fill="#F3F3F3" fill-opacity=".67"/><path d="M1607.23 200.635l-139.86 118.219h38.66l138.6-118.219h-37.4z" fill="#fff"/><path stroke="#D4D6D9" stroke-opacity=".5" d="M185.438 498.72l364.781-310.068M153.208 498.72L517.99 188.652M169.324 498.72l364.781-310.068M120.98 498.72l364.781-310.068M137.094 498.72l364.782-310.068M88.75 498.72l364.782-310.068M104.866 498.72l364.781-310.068M72.636 498.72l364.782-310.068M56.522 498.72l364.781-310.068M24.293 498.72l364.782-310.068M40.408 498.72l364.781-310.068M-7.936 498.72l364.781-310.068M8.178 498.72L372.96 188.652M-72.394 498.72l364.781-310.068M-40.166 498.72l364.782-310.068M-104.624 498.72l364.782-310.068M-24.051 498.72L340.73 188.652M-88.508 498.72l364.781-310.068M-56.28 498.72l364.782-310.068M-136.852 498.72l364.781-310.068M-120.738 498.72l364.782-310.068M-169.082 498.72L195.7 188.652M-152.966 498.72l364.781-310.068M-185.196 498.72l364.782-310.068M1500.31 1336.69l364.78-310.06M1468.08 1336.69l364.78-310.06M1484.2 1336.69l364.78-310.06M1435.85 1336.69l364.78-310.06M1451.97 1336.69l364.78-310.06M1403.62 1336.69l364.78-310.06M1419.74 1336.69l364.78-310.06M1387.51 1336.69l364.78-310.06M1371.39 1336.69l364.79-310.06M1339.17 1336.69l364.78-310.06M1355.28 1336.69l364.78-310.06M1306.94 1336.69l364.78-310.06M1323.05 1336.69l364.78-310.06M1242.48 1336.69l364.78-310.06M1274.71 1336.69l364.78-310.06M1210.25 1336.69l364.78-310.06M1290.82 1336.69l364.78-310.06M1226.36 1336.69l364.79-310.06"/><path stroke="#0047FF" d="M1258.59 1336.69l424.11-359.823"/><path stroke="#D4D6D9" stroke-opacity=".5" d="M1178.02 1336.69l364.78-310.06M1194.13 1336.69l364.79-310.06M1145.79 1336.69l364.78-310.06M1161.91 1336.69l364.78-310.06M1129.68 1336.69l364.78-310.06"/><path d="M1487.01 1207.51l-66.95 56.29h57.26l66.53-56.29h-56.84z" fill="#0047FF"/><path d="M94.163 435.248L-57.722 562.955H72.196l150.926-127.707H94.163z" fill="#F3F3F3" fill-opacity=".67"/><path d="M271.421 344.067L131.565 462.286l38.659.001 138.601-118.22h-37.404z" fill="#fff"/></svg>

<svg width="1920" height="1338" viewBox="0 0 1920 1338" fill="none" xmlns="http://www.w3.org/2000/svg">
<g opacity="0.5">

<mask id="mask0" mask-type="alpha" maskUnits="userSpaceOnUse" x="329" y="861" width="561" height="328">
<rect x="889.373" y="1188.2" width="560.331" height="326.331" transform="rotate(-180 889.373 1188.2)" fill="#C4C4C4"/>
</mask>
<g mask="url(#mask0)">
<line x1="436.149" y1="877.817" x2="71.3678" y2="1187.89" stroke="#0047FF" stroke-width="0.5"/>
<line x1="468.379" y1="877.817" x2="103.597" y2="1187.89" stroke="#0047FF" stroke-width="0.5"/>
<line x1="452.263" y1="877.817" x2="87.482" y2="1187.89" stroke="#0047FF" stroke-width="0.5"/>
<line x1="500.607" y1="877.817" x2="135.826" y2="1187.89" stroke="#0047FF" stroke-width="0.5"/>
<line x1="484.493" y1="877.817" x2="119.712" y2="1187.89" stroke="#0047FF" stroke-width="0.5"/>
<line x1="532.837" y1="877.817" x2="168.055" y2="1187.89" stroke="#0047FF" stroke-width="0.5"/>
<line x1="516.721" y1="877.817" x2="151.94" y2="1187.89" stroke="#0047FF" stroke-width="0.5"/>
<line x1="548.951" y1="877.817" x2="184.17" y2="1187.89" stroke="#0047FF" stroke-width="0.5"/>
<line x1="565.065" y1="877.817" x2="200.284" y2="1187.89" stroke="#0047FF" stroke-width="0.5"/>
<line x1="597.294" y1="877.817" x2="232.512" y2="1187.89" stroke="#0047FF" stroke-width="0.5"/>
<line x1="581.179" y1="877.817" x2="216.398" y2="1187.89" stroke="#0047FF" stroke-width="0.5"/>
<line x1="629.523" y1="877.817" x2="264.742" y2="1187.89" stroke="#0047FF" stroke-width="0.5"/>
<line x1="613.409" y1="877.817" x2="248.628" y2="1187.89" stroke="#0047FF" stroke-width="0.5"/>
<line x1="693.981" y1="877.817" x2="329.2" y2="1187.89" stroke="#0047FF" stroke-width="0.5"/>
<line x1="661.753" y1="877.817" x2="296.971" y2="1187.89" stroke="#0047FF" stroke-width="0.5"/>
<line x1="726.211" y1="877.817" x2="361.429" y2="1187.89" stroke="#0047FF" stroke-width="0.5"/>
<line x1="645.638" y1="877.817" x2="280.857" y2="1187.89" stroke="#0047FF" stroke-width="0.5"/>
<line x1="710.096" y1="877.817" x2="345.314" y2="1187.89" stroke="#0047FF" stroke-width="0.5"/>
<line x1="677.867" y1="877.817" x2="313.086" y2="1187.89" stroke="#0047FF" stroke-width="0.5"/>
<line x1="758.439" y1="877.817" x2="393.658" y2="1187.89" stroke="#0047FF" stroke-width="0.5"/>
<line x1="742.325" y1="877.817" x2="377.544" y2="1187.89" stroke="#0047FF" stroke-width="0.5"/>
<line x1="790.669" y1="877.817" x2="425.887" y2="1187.89" stroke="#0047FF" stroke-width="0.5"/>
<line x1="774.554" y1="877.817" x2="409.772" y2="1187.89" stroke="#0047FF" stroke-width="0.5"/>
<line x1="806.783" y1="877.817" x2="442.002" y2="1187.89" stroke="#0047FF" stroke-width="0.5"/>
</g>
</g>
<line x1="1595.96" y1="311.409" x2="1960.74" y2="1.3409" stroke="#0047FF" stroke-opacity="0.15"/>
<line x1="1563.73" y1="311.409" x2="1928.51" y2="1.3409" stroke="#0047FF" stroke-opacity="0.15"/>
<line x1="1579.85" y1="311.409" x2="1944.63" y2="1.3409" stroke="#0047FF" stroke-opacity="0.15"/>
<line x1="1531.5" y1="311.409" x2="1896.29" y2="1.3409" stroke="#0047FF" stroke-opacity="0.15"/>
<line x1="1547.62" y1="311.409" x2="1912.4" y2="1.3409" stroke="#0047FF" stroke-opacity="0.15"/>
<line x1="1499.27" y1="311.409" x2="1864.06" y2="1.3409" stroke="#0047FF" stroke-opacity="0.15"/>
<line x1="1515.39" y1="311.409" x2="1880.17" y2="1.3409" stroke="#0047FF" stroke-opacity="0.15"/>
<line x1="1483.16" y1="311.409" x2="1847.94" y2="1.3409" stroke="#0047FF" stroke-opacity="0.15"/>
<line x1="1467.05" y1="311.409" x2="1831.83" y2="1.3409" stroke="#0047FF" stroke-opacity="0.15"/>
<line x1="1434.82" y1="311.409" x2="1799.6" y2="1.3409" stroke="#0047FF" stroke-opacity="0.15"/>
<line x1="1450.93" y1="311.409" x2="1815.71" y2="1.3409" stroke="#0047FF" stroke-opacity="0.15"/>
<line x1="1402.59" y1="311.409" x2="1767.37" y2="1.3409" stroke="#0047FF" stroke-opacity="0.15"/>
<line x1="1418.7" y1="311.409" x2="1783.48" y2="1.3409" stroke="#0047FF" stroke-opacity="0.15"/>
<line x1="1338.13" y1="311.409" x2="1702.91" y2="1.3409" stroke="#0047FF" stroke-opacity="0.15"/>
<line x1="1370.36" y1="311.409" x2="1735.14" y2="1.3409" stroke="#0047FF" stroke-opacity="0.15"/>
<line x1="1305.9" y1="311.409" x2="1670.68" y2="1.3409" stroke="#0047FF" stroke-opacity="0.15"/>
<line x1="1386.47" y1="311.409" x2="1751.25" y2="1.3409" stroke="#0047FF" stroke-opacity="0.15"/>
<line x1="1322.02" y1="311.409" x2="1686.8" y2="1.3409" stroke="#0047FF" stroke-opacity="0.15"/>
<line x1="1354.24" y1="311.409" x2="1719.03" y2="1.3409" stroke="#0047FF" stroke-opacity="0.15"/>
<line x1="1273.67" y1="311.409" x2="1638.45" y2="1.3409" stroke="#0047FF" stroke-opacity="0.15"/>
<line x1="1289.79" y1="311.409" x2="1654.57" y2="1.3409" stroke="#0047FF" stroke-opacity="0.15"/>
<line x1="1241.44" y1="311.409" x2="1606.22" y2="1.3409" stroke="#0047FF" stroke-opacity="0.15"/>
<line x1="1257.56" y1="311.409" x2="1622.34" y2="1.3409" stroke="#0047FF" stroke-opacity="0.15"/>
<line x1="1225.33" y1="311.409" x2="1590.11" y2="1.3409" stroke="#0047FF" stroke-opacity="0.15"/>
<path d="M1477.59 266.605L1325.7 394.313L1455.62 394.313L1606.55 266.606L1477.59 266.605Z" fill="#F3F3F3" fill-opacity="0.67"/>
<path d="M1607.23 200.635L1467.37 318.854L1506.03 318.854L1644.63 200.635L1607.23 200.635Z" fill="white"/>
<line x1="185.438" y1="498.72" x2="550.219" y2="188.652" stroke="#D4D6D9" stroke-opacity="0.5"/>
<line x1="153.208" y1="498.72" x2="517.99" y2="188.652" stroke="#D4D6D9" stroke-opacity="0.5"/>
<line x1="169.324" y1="498.72" x2="534.105" y2="188.652" stroke="#D4D6D9" stroke-opacity="0.5"/>
<line x1="120.98" y1="498.72" x2="485.761" y2="188.652" stroke="#D4D6D9" stroke-opacity="0.5"/>
<line x1="137.094" y1="498.72" x2="501.876" y2="188.652" stroke="#D4D6D9" stroke-opacity="0.5"/>
<line x1="88.7504" y1="498.72" x2="453.532" y2="188.652" stroke="#D4D6D9" stroke-opacity="0.5"/>
<line x1="104.866" y1="498.72" x2="469.647" y2="188.652" stroke="#D4D6D9" stroke-opacity="0.5"/>
<line x1="72.6361" y1="498.72" x2="437.418" y2="188.652" stroke="#D4D6D9" stroke-opacity="0.5"/>
<line x1="56.5219" y1="498.72" x2="421.303" y2="188.652" stroke="#D4D6D9" stroke-opacity="0.5"/>
<line x1="24.2934" y1="498.72" x2="389.075" y2="188.652" stroke="#D4D6D9" stroke-opacity="0.5"/>
<line x1="40.4076" y1="498.72" x2="405.189" y2="188.652" stroke="#D4D6D9" stroke-opacity="0.5"/>
<line x1="-7.93613" y1="498.72" x2="356.845" y2="188.652" stroke="#D4D6D9" stroke-opacity="0.5"/>
<line x1="8.17813" y1="498.72" x2="372.96" y2="188.652" stroke="#D4D6D9" stroke-opacity="0.5"/>
<line x1="-72.3941" y1="498.72" x2="292.387" y2="188.652" stroke="#D4D6D9" stroke-opacity="0.5"/>
<line x1="-40.1656" y1="498.72" x2="324.616" y2="188.652" stroke="#D4D6D9" stroke-opacity="0.5"/>
<line x1="-104.624" y1="498.72" x2="260.158" y2="188.652" stroke="#D4D6D9" stroke-opacity="0.5"/>
<line x1="-24.0514" y1="498.72" x2="340.73" y2="188.652" stroke="#D4D6D9" stroke-opacity="0.5"/>
<line x1="-88.5084" y1="498.72" x2="276.273" y2="188.652" stroke="#D4D6D9" stroke-opacity="0.5"/>
<line x1="-56.2799" y1="498.72" x2="308.502" y2="188.652" stroke="#D4D6D9" stroke-opacity="0.5"/>
<line x1="-136.852" y1="498.72" x2="227.929" y2="188.652" stroke="#D4D6D9" stroke-opacity="0.5"/>
<line x1="-120.738" y1="498.72" x2="244.044" y2="188.652" stroke="#D4D6D9" stroke-opacity="0.5"/>
<line x1="-169.082" y1="498.72" x2="195.7" y2="188.652" stroke="#D4D6D9" stroke-opacity="0.5"/>
<line x1="-152.966" y1="498.72" x2="211.815" y2="188.652" stroke="#D4D6D9" stroke-opacity="0.5"/>
<line x1="-185.196" y1="498.72" x2="179.586" y2="188.652" stroke="#D4D6D9" stroke-opacity="0.5"/>
<line x1="1500.31" y1="1336.69" x2="1865.09" y2="1026.63" stroke="#D4D6D9" stroke-opacity="0.5"/>
<line x1="1468.08" y1="1336.69" x2="1832.86" y2="1026.63" stroke="#D4D6D9" stroke-opacity="0.5"/>
<line x1="1484.2" y1="1336.69" x2="1848.98" y2="1026.63" stroke="#D4D6D9" stroke-opacity="0.5"/>
<line x1="1435.85" y1="1336.69" x2="1800.63" y2="1026.63" stroke="#D4D6D9" stroke-opacity="0.5"/>
<line x1="1451.97" y1="1336.69" x2="1816.75" y2="1026.63" stroke="#D4D6D9" stroke-opacity="0.5"/>
<line x1="1403.62" y1="1336.69" x2="1768.4" y2="1026.63" stroke="#D4D6D9" stroke-opacity="0.5"/>
<line x1="1419.74" y1="1336.69" x2="1784.52" y2="1026.63" stroke="#D4D6D9" stroke-opacity="0.5"/>
<line x1="1387.51" y1="1336.69" x2="1752.29" y2="1026.63" stroke="#D4D6D9" stroke-opacity="0.5"/>
<line x1="1371.39" y1="1336.69" x2="1736.18" y2="1026.63" stroke="#D4D6D9" stroke-opacity="0.5"/>
<line x1="1339.17" y1="1336.69" x2="1703.95" y2="1026.63" stroke="#D4D6D9" stroke-opacity="0.5"/>
<line x1="1355.28" y1="1336.69" x2="1720.06" y2="1026.63" stroke="#D4D6D9" stroke-opacity="0.5"/>
<line x1="1306.94" y1="1336.69" x2="1671.72" y2="1026.63" stroke="#D4D6D9" stroke-opacity="0.5"/>
<line x1="1323.05" y1="1336.69" x2="1687.83" y2="1026.63" stroke="#D4D6D9" stroke-opacity="0.5"/>
<line x1="1242.48" y1="1336.69" x2="1607.26" y2="1026.63" stroke="#D4D6D9" stroke-opacity="0.5"/>
<line x1="1274.71" y1="1336.69" x2="1639.49" y2="1026.63" stroke="#D4D6D9" stroke-opacity="0.5"/>
<line x1="1210.25" y1="1336.69" x2="1575.03" y2="1026.63" stroke="#D4D6D9" stroke-opacity="0.5"/>
<line x1="1290.82" y1="1336.69" x2="1655.6" y2="1026.63" stroke="#D4D6D9" stroke-opacity="0.5"/>
<line x1="1226.36" y1="1336.69" x2="1591.15" y2="1026.63" stroke="#D4D6D9" stroke-opacity="0.5"/>
<line x1="1258.59" y1="1336.69" x2="1682.7" y2="976.867" stroke="#0047FF"/>
<line x1="1178.02" y1="1336.69" x2="1542.8" y2="1026.63" stroke="#D4D6D9" stroke-opacity="0.5"/>
<line x1="1194.13" y1="1336.69" x2="1558.92" y2="1026.63" stroke="#D4D6D9" stroke-opacity="0.5"/>
<line x1="1145.79" y1="1336.69" x2="1510.57" y2="1026.63" stroke="#D4D6D9" stroke-opacity="0.5"/>
<line x1="1161.91" y1="1336.69" x2="1526.69" y2="1026.63" stroke="#D4D6D9" stroke-opacity="0.5"/>
<line x1="1129.68" y1="1336.69" x2="1494.46" y2="1026.63" stroke="#D4D6D9" stroke-opacity="0.5"/>
<path d="M1487.01 1207.51L1420.06 1263.8L1477.32 1263.8L1543.85 1207.51L1487.01 1207.51Z" fill="#0047FF"/>
<path d="M94.1633 435.248L-57.7217 562.955L72.196 562.955L223.122 435.248L94.1633 435.248Z" fill="#F3F3F3" fill-opacity="0.67"/>
<path d="M271.421 344.067L131.565 462.286L170.224 462.287L308.825 344.067L271.421 344.067Z" fill="white"/>

</svg>
